wp-content/themes/hatch/dist/asset/img/icon-search.svg

<?xml version="1.0" encoding="UTF-8" standalone="no"?>
<svg width="20px" height="21px" viewBox="0 0 20 21" version="1.1" xmlns="http://www.w3.org/2000/svg" xmlns:xlink="http://www.w3.org/1999/xlink" xmlns:sketch="http://www.bohemiancoding.com/sketch/ns">
    <!-- Generator: Sketch 3.2.2 (9983) - http://www.bohemiancoding.com/sketch -->
    <title>Shape</title>
    <desc>Created with Sketch.</desc>
    <defs></defs>
    <g id="Page-1" stroke="none" stroke-width="1" fill="none" fill-rule="evenodd" sketch:type="MSPage">
        <g id="icon-search-button" sketch:type="MSLayerGroup" fill="#222222">
            <g id="POST" sketch:type="MSShapeGroup">
                <g id="Post">
                    <g id="SIDEBAR">
                        <g id="SEARCH">
                            <path d="M19.867263,18.0156601 L13.6103061,11.7477611 C14.4229005,10.5342898 14.8594975,9.10745413 14.8594975,7.61350413 C14.8594975,5.62551063 14.0867029,3.75652038 12.6833125,2.35072075 C11.2799223,0.945121375 9.41433514,0.171 7.42974876,0.171 C5.44516251,0.171 3.57937538,0.945121375 2.175985,2.35072075 C0.772794626,3.75652038 1.77635684e-15,5.62551063 1.77635684e-15,7.61350413 C1.77635684e-15,9.6014975 0.772794626,11.4702875 2.176185,12.8760871 C3.57957538,14.2818868 5.44516251,15.0560081 7.42994876,15.0560081 C8.93813839,15.0560081 10.3773285,14.6084441 11.59752,13.7768246 L17.8484769,20.0381124 C18.0594755,20.2496735 18.4474728,20.2035949 18.714871,19.9357376 L19.7652638,18.8835416 C20.0326619,18.6156844 20.0784615,18.2270209 19.867263,18.0156601 L19.867263,18.0156601 L19.867263,18.0156601 Z M7.42974876,13.0397665 C4.44256938,13.0397665 2.01258613,10.6056115 2.01258613,7.61350413 C2.01258613,4.62139663 4.44276938,2.18704125 7.42974876,2.18704125 C10.4167281,2.18704125 12.8467114,4.62139663 12.8467114,7.61350413 C12.8467114,10.6056115 10.4167281,13.0397665 7.42974876,13.0397665 L7.42974876,13.0397665 L7.42974876,13.0397665 Z" id="Shape"></path>
                        </g>
                    </g>
                </g>
            </g>
        </g>
    </g>
</svg>

<svg width="20" height="21" xmlns="http://www.w3.org/2000/svg"><path d="M19.867 18.016l-6.257-6.268a7.399 7.399 0 001.25-4.134 7.4 7.4 0 00-2.177-5.263A7.375 7.375 0 007.43.17c-1.985 0-3.85.774-5.254 2.18A7.4 7.4 0 000 7.614a7.4 7.4 0 002.176 5.262 7.374 7.374 0 005.254 2.18 7.367 7.367 0 004.168-1.28l6.25 6.262c.211.212.6.166.867-.102l1.05-1.052c.268-.268.313-.657.102-.868zM7.43 13.04c-2.987 0-5.417-2.434-5.417-5.426 0-2.993 2.43-5.427 5.417-5.427 2.987 0 5.417 2.434 5.417 5.427 0 2.992-2.43 5.426-5.417 5.426z" fill="#222" fill-rule="evenodd"/></svg>
